img/svg/icon10.svg

<svg xmlns="http://www.w3.org/2000/svg" preserveAspectRatio="xMidYMid" width="56" height="51" viewBox="0 0 56 51"><defs><style>.cls-2 { fill: #000000; stroke: #ff4700; stroke-linejoin: round; stroke-width: 1px; opacity: 0.8; fill-opacity: 0; }</style></defs><path d="M52.488 26.532c-.058 1.083-3.481 8.531-4.465 9.682-.983 1.151-8.677 5.508-8.677 5.508-.257.21-1.682 1.288-1.682 2.701v3.068l-8.295.009-.007-2.815c-.019-.52-.11-1.038-.173-1.556-.181-.592-.036-1.71.048-2.145.964-4.223 4.512-6.718 4.899-7.013.215-.163 1.912-1.425 6.622-1.732.259-.021.52-.201.75-.353.293-.191.597-.391.819-.651.36-.423.768-.779 1.11-1.248 2.29-3.136 4.534-3.766 4.869-3.89.446-.212 2.159.049 1.336 1.17-.051.008-2.617 3.55-2.785 3.833-.295.5-.628.704-.941 1.055-.286.321-.603.615-.895.93 0 0 1.64-.954 2.034-1.373.176-.187.26-.456.399-.678.161-.257.333-.507.508-.754.219-.308.44-.616.673-.914.297-.38.606-.752.912-1.126.191-.232.406-.456.563-.7.776-1.204-.111-1.925-.954-2.015.041-.139.429-3.781.497-4.393.193-1.755.385-3.056 1.409-3.41.264-.092.451-.061.648.143.233.24.371 1.515.438 2.322 0 0 .449 4.326.34 6.345zm-10.84-5.875c-.517-.002-1.034-.194-1.427-.573l-1.371-1.329.004 11.403-10.853-.018-10.842.018-.008-11.403-1.372 1.33c-.393.379-.91.57-1.426.572-.517 0-1.036-.189-1.429-.569-.789-.761-.792-1.995-.005-2.757l13.676-13.257c.297-.286.677-.471 1.084-.54v-.007l.297-.028.025.003.023-.003.297.028v.006c.406.07.787.254 1.083.541l13.678 13.256c.787.763.786 1.996-.006 2.758-.393.379-.912.569-1.428.569zm-5.485-4.508l-8.162-7.911-8.163 7.911.007 11.649 4.812.005-.01-6.669 3.008-.004v-.001h.641v.001l3.034.004.013 6.669 4.825-.005-.005-11.649zm-22.489 15.086c.222.26.526.46.819.652.23.151.491.332.75.353 4.709.307 6.407 1.568 6.621 1.731.387.296 3.936 2.79 4.899 7.014.085.434.229 1.553.048 2.145-.063.518-.153 1.036-.172 1.556l-.008 2.815-8.295-.009v-3.068c0-1.413-1.424-2.491-1.682-2.702 0 0-7.694-4.357-8.677-5.507-.984-1.151-4.407-8.6-4.465-9.683-.108-2.018.34-6.345.34-6.345.067-.806.206-2.081.439-2.322.197-.204.383-.234.647-.143 1.025.354 1.216 1.655 1.41 3.411.068.611.456 4.253.496 4.392-.843.091-1.729.811-.953 2.016.157.243.372.467.563.7.306.373.614.746.911 1.125.233.299.454.606.673.915.176.247.347.497.509.753.139.223.223.491.399.679.393.418 2.034 1.373 2.034 1.373-.292-.316-.609-.61-.895-.93-.313-.351-.647-.556-.942-1.055-.166-.283-2.732-3.825-2.785-3.833-.822-1.121.89-1.382 1.337-1.17.335.124 2.579.753 4.869 3.889.342.47.749.825 1.11 1.248z" id="path-1" class="cls-2" fill-rule="evenodd"/></svg>

<svg xmlns="http://www.w3.org/2000/svg" xmlns:xlink="http://www.w3.org/1999/xlink" preserveAspectRatio="xMidYMid" width="56" height="51" viewBox="0 0 56 51">
  <defs>
    <style>

      .cls-2 {
        fill: #000000;
        stroke: #ff4700;
        stroke-linejoin: round;
        stroke-width: 1px;
        opacity: 0.8;
        fill-opacity: 0;
      }
    </style>
  </defs>
  <path d="M52.488,26.532 C52.430,27.615 49.007,35.063 48.023,36.214 C47.040,37.365 39.346,41.722 39.346,41.722 C39.089,41.932 37.664,43.010 37.664,44.423 C37.664,44.423 37.664,47.491 37.664,47.491 C37.664,47.491 29.369,47.500 29.369,47.500 C29.369,47.500 29.362,44.685 29.362,44.685 C29.343,44.165 29.252,43.647 29.189,43.129 C29.008,42.537 29.153,41.419 29.237,40.984 C30.201,36.761 33.749,34.266 34.136,33.971 C34.351,33.808 36.048,32.546 40.758,32.239 C41.017,32.218 41.278,32.038 41.508,31.886 C41.801,31.695 42.105,31.495 42.327,31.235 C42.687,30.812 43.095,30.456 43.437,29.987 C45.727,26.851 47.971,26.221 48.306,26.097 C48.752,25.885 50.465,26.146 49.642,27.267 C49.591,27.275 47.025,30.817 46.857,31.100 C46.562,31.600 46.229,31.804 45.916,32.155 C45.630,32.476 45.313,32.770 45.021,33.085 C45.021,33.085 46.661,32.131 47.055,31.712 C47.231,31.525 47.315,31.256 47.454,31.034 C47.615,30.777 47.787,30.527 47.962,30.280 C48.181,29.972 48.402,29.664 48.635,29.366 C48.932,28.986 49.241,28.614 49.547,28.240 C49.738,28.008 49.953,27.784 50.110,27.540 C50.886,26.336 49.999,25.615 49.156,25.525 C49.197,25.386 49.585,21.744 49.653,21.132 C49.846,19.377 50.038,18.076 51.062,17.722 C51.326,17.630 51.513,17.661 51.710,17.865 C51.943,18.105 52.081,19.380 52.148,20.187 C52.148,20.187 52.597,24.513 52.488,26.532 ZM41.648,20.657 C41.131,20.655 40.614,20.463 40.221,20.084 C40.221,20.084 38.850,18.755 38.850,18.755 C38.850,18.755 38.854,30.158 38.854,30.158 C38.854,30.158 28.001,30.140 28.001,30.140 C28.001,30.140 17.159,30.158 17.159,30.158 C17.159,30.158 17.151,18.755 17.151,18.755 C17.151,18.755 15.779,20.085 15.779,20.085 C15.386,20.464 14.869,20.655 14.353,20.657 C13.836,20.657 13.317,20.468 12.924,20.088 C12.135,19.327 12.132,18.093 12.919,17.331 C12.919,17.331 26.595,4.074 26.595,4.074 C26.892,3.788 27.272,3.603 27.679,3.534 C27.679,3.534 27.679,3.527 27.679,3.527 C27.777,3.514 27.874,3.499 27.976,3.499 C27.985,3.499 27.992,3.502 28.001,3.502 C28.008,3.502 28.016,3.499 28.024,3.499 C28.124,3.499 28.223,3.513 28.321,3.527 C28.321,3.527 28.321,3.533 28.321,3.533 C28.727,3.603 29.108,3.787 29.404,4.074 C29.404,4.074 43.082,17.330 43.082,17.330 C43.869,18.093 43.868,19.326 43.076,20.088 C42.683,20.467 42.164,20.657 41.648,20.657 ZM36.163,16.149 C36.163,16.149 28.001,8.238 28.001,8.238 C28.001,8.238 19.838,16.149 19.838,16.149 C19.838,16.149 19.845,27.798 19.845,27.798 C19.845,27.798 24.657,27.803 24.657,27.803 C24.657,27.803 24.647,21.134 24.647,21.134 C24.647,21.134 27.655,21.130 27.655,21.130 C27.655,21.130 27.655,21.129 27.655,21.129 C27.655,21.129 27.976,21.129 27.976,21.129 C27.976,21.129 28.296,21.129 28.296,21.129 C28.296,21.129 28.296,21.130 28.296,21.130 C28.296,21.130 31.330,21.134 31.330,21.134 C31.330,21.134 31.343,27.803 31.343,27.803 C31.343,27.803 36.168,27.798 36.168,27.798 C36.168,27.798 36.163,16.149 36.163,16.149 ZM13.674,31.235 C13.896,31.495 14.200,31.695 14.493,31.887 C14.723,32.038 14.984,32.219 15.243,32.240 C19.952,32.547 21.650,33.808 21.864,33.971 C22.251,34.267 25.800,36.761 26.763,40.985 C26.848,41.419 26.992,42.538 26.811,43.130 C26.748,43.648 26.658,44.166 26.639,44.686 C26.639,44.686 26.631,47.501 26.631,47.501 C26.631,47.501 18.336,47.492 18.336,47.492 C18.336,47.492 18.336,44.424 18.336,44.424 C18.336,43.011 16.912,41.933 16.654,41.722 C16.654,41.722 8.960,37.365 7.977,36.215 C6.993,35.064 3.570,27.615 3.512,26.532 C3.404,24.514 3.852,20.187 3.852,20.187 C3.919,19.381 4.058,18.106 4.291,17.865 C4.488,17.661 4.674,17.631 4.938,17.722 C5.963,18.076 6.154,19.377 6.348,21.133 C6.416,21.744 6.804,25.386 6.844,25.525 C6.001,25.616 5.115,26.336 5.891,27.541 C6.048,27.784 6.263,28.008 6.454,28.241 C6.760,28.614 7.068,28.987 7.365,29.366 C7.598,29.665 7.819,29.972 8.038,30.281 C8.214,30.528 8.385,30.778 8.547,31.034 C8.686,31.257 8.770,31.525 8.946,31.713 C9.339,32.131 10.980,33.086 10.980,33.086 C10.688,32.770 10.371,32.476 10.085,32.156 C9.772,31.805 9.438,31.600 9.143,31.101 C8.977,30.818 6.411,27.276 6.358,27.268 C5.536,26.147 7.248,25.886 7.695,26.098 C8.030,26.222 10.274,26.851 12.564,29.987 C12.906,30.457 13.313,30.812 13.674,31.235 Z" id="path-1" class="cls-2" fill-rule="evenodd"/>
</svg>
